X:1
T:Title
%%score 1 { 2 | 3 }
L:1/8
Q:1/4=99
M:3/4
K:Bb
V:1 treble nm="Grand Piano, Soprano"
V:2 bass nm="Choir Pad, Freeport (Shoemaker), 1902"
V:3 bass 
V:1
 [DF]2 [DB][Fd] [FB]2 | [EG]2 [EF][EA] [DB]2 | [DB]2 [EA][DB] [Fe]2 | [Fd]2 [Fc]4 | %4
w: By~Joseph~Shellenberger~Shoemaker,~1902 * * *||||
 [Fc]2 [Fd][Ec] [DB]2 | [^FA]2 G[GB] [=FB]2 | [=EB]2 [FA][FB] [Fd]2 | [Ec]2 [DB]4- | [DB]4 z2 |] %9
w: |||||
V:2
 B,2 B,B, B,2 | B,2 A,C B,2 | F,2 F,F, C2 | B,2 A,4 | A,2 B,A, B,2 | C2 B,B, B,2 | C2 CD B,2 | %7
 A,2 B,4- | B,4 z2 |] %9
V:3
 B,,2 B,,B,, D,2 | E,2 F,F, B,,2 | B,,2 C,B,, A,,2 | B,,2 F,4 | F,2 z ^F, G,2 | D,2 E,E, D,2 | %6
 C,2 F,F, F,2 | [F,,F,]2 B,,4- | B,,4 z2 |] %9

